svg/system/fire_line.svg

<?xml version="1.0" encoding="UTF-8"?>
<svg width="24px" height="24px" viewBox="0 0 24 24" version="1.1" xmlns="http://www.w3.org/2000/svg" xmlns:xlink="http://www.w3.org/1999/xlink">
    <title>fire_line</title>
    <g id="页面-1" stroke="none" stroke-width="1" fill="none" fill-rule="evenodd">
        <g id="System" transform="translate(-480.000000, 0.000000)">
            <g id="fire_line" transform="translate(480.000000, 0.000000)">
                 <path d="M24,0 L24,24 L0,24 L0,0 L24,0 Z M12.5934901,23.257841 L12.5819402,23.2595131 L12.5108777,23.2950439 L12.4918791,23.2987469 L12.4918791,23.2987469 L12.4767152,23.2950439 L12.4056548,23.2595131 C12.3958229,23.2563662 12.3870493,23.2590235 12.3821421,23.2649074 L12.3780323,23.275831 L12.360941,23.7031097 L12.3658947,23.7234994 L12.3769048,23.7357139 L12.4804777,23.8096931 L12.4953491,23.8136134 L12.4953491,23.8136134 L12.5071152,23.8096931 L12.6106902,23.7357139 L12.6232938,23.7196733 L12.6232938,23.7196733 L12.6266527,23.7031097 L12.609561,23.275831 C12.6075724,23.2657013 12.6010112,23.2592993 12.5934901,23.257841 L12.5934901,23.257841 Z M12.8583906,23.1452862 L12.8445485,23.1473072 L12.6598443,23.2396597 L12.6498822,23.2499052 L12.6498822,23.2499052 L12.6471943,23.2611114 L12.6650943,23.6906389 L12.6699349,23.7034178 L12.6699349,23.7034178 L12.678386,23.7104931 L12.8793402,23.8032389 C12.8914285,23.8068999 12.9022333,23.8029875 12.9078286,23.7952264 L12.9118235,23.7811639 L12.8776777,23.1665331 C12.8752882,23.1545897 12.8674102,23.1470016 12.8583906,23.1452862 L12.8583906,23.1452862 Z M12.1430473,23.1473072 C12.1332178,23.1423925 12.1221763,23.1452606 12.1156365,23.1525954 L12.1099173,23.1665331 L12.0757714,23.7811639 C12.0751323,23.7926639 12.0828099,23.8018602 12.0926481,23.8045676 L12.108256,23.8032389 L12.3092106,23.7104931 L12.3186497,23.7024347 L12.3186497,23.7024347 L12.3225043,23.6906389 L12.340401,23.2611114 L12.337245,23.2485176 L12.337245,23.2485176 L12.3277531,23.2396597 L12.1430473,23.1473072 Z" id="MingCute" fill-rule="nonzero"></path>
                <path d="M10.2549,1.38696 L11.5144,2.1426 C13.2963,3.21163 14.4118,4.73241 14.9953,6.28723 C15.2173,5.78612 15.481,5.30197 15.726,4.81195 L16.707,5.79301 C18.9091,7.99508 20.9999,11.2954 20.9999,14.5001 C20.9999,18.7984 18.3501,21.5229 14.1105,21.994 L12.7206,22.1484 L13.0239,20.7832 C13.2612,19.7152 13.3031,19.0168 13.2548,18.5281 C13.194,17.9126 12.9015,17.4302 12.5383,16.95 C12.1898,16.4892 11.8453,16.0286 11.5695,15.5192 C10.4338,16.4167 9.99385,17.227 9.85349,17.8936 C9.67355,18.7484 9.92843,19.621 10.3944,20.5529 L11.2164,22.197 L9.3895,21.994 C6.81362,21.7078 4.27565,19.9872 3.27601,17.4755 C2.23067,14.8489 2.96986,11.6697 6.34517,8.74442 C8.5855,6.80282 9.77193,4.28597 10.2549,1.38696 Z M11.587,4.68781 C10.825,6.82703 9.36239,8.77611 7.65502,10.2558 C4.74378,12.7788 4.48299,15.0996 5.13425,16.7359 C5.61965,17.9556 6.66682,18.9589 7.90774,19.5279 C7.77608,18.8896 7.7448,18.2016 7.89639,17.4816 C8.22184,15.9358 9.33388,14.4872 11.47,13.1521 L12.547,12.479 L12.9487,13.6839 C13.3007,14.74 14.0312,15.4866 14.6016,16.4135 C15.2296,17.434 15.3497,18.6034 15.2229,19.7725 C17.841,19.1162 18.9999,17.1295 18.9999,14.5001 C18.9999,12.2784 17.6598,10.0983 16.3292,8.39425 C15.7823,9.6221 14.6265,10.0549 13.4999,10.6181 L13.4999,9.00011 C13.4999,7.63116 12.9432,5.96245 11.587,4.68781 Z" id="形状" fill="#09244B"></path>
            </g>
        </g>
    </g>
</svg>

<svg xmlns="http://www.w3.org/2000/svg" width="24" height="24"><g fill="none" fill-rule="evenodd"><path d="M24 0v24H0V0h24ZM12.593 23.258l-.011.002-.071.035-.02.004-.014-.004-.071-.035c-.01-.004-.019-.001-.024.005l-.004.01-.017.428.005.02.01.013.104.074.015.004.012-.004.104-.074.012-.016.004-.017-.017-.427c-.002-.01-.009-.017-.017-.018Zm.265-.113-.013.002-.185.093-.01.01-.003.011.018.43.005.012.008.007.201.093c.012.004.023 0 .029-.008l.004-.014-.034-.614c-.003-.012-.01-.02-.02-.022Zm-.715.002a.023.023 0 0 0-.027.006l-.006.014-.034.614c0 .012.007.02.017.024l.015-.002.201-.093.01-.008.004-.011.017-.43-.003-.012-.01-.01-.184-.092Z"/><path fill="#09244B" d="m10.255 1.387 1.26.756a8.146 8.146 0 0 1 3.48 4.144c.222-.5.486-.985.731-1.475l.981.981C18.909 7.995 21 11.295 21 14.5c0 4.298-2.65 7.023-6.89 7.494l-1.39.154.304-1.365c.237-1.068.28-1.766.23-2.255-.06-.615-.352-1.098-.716-1.578-.348-.46-.693-.921-.969-1.43-1.135.897-1.575 1.707-1.716 2.374-.18.854.075 1.727.541 2.659l.822 1.644-1.826-.203c-2.576-.286-5.114-2.007-6.114-4.518-1.045-2.627-.306-5.806 3.07-8.732 2.24-1.941 3.426-4.458 3.909-7.357Zm1.332 3.3c-.762 2.14-2.225 4.09-3.932 5.569-2.911 2.523-3.172 4.844-2.52 6.48.485 1.22 1.532 2.223 2.773 2.792a4.97 4.97 0 0 1-.012-2.046c.326-1.546 1.438-2.995 3.574-4.33l1.077-.673.402 1.205c.352 1.056 1.082 1.803 1.653 2.73.628 1.02.748 2.19.62 3.358C17.842 19.117 19 17.13 19 14.5c0-2.222-1.34-4.402-2.67-6.106-.548 1.228-1.703 1.66-2.83 2.224V9c0-1.369-.557-3.038-1.913-4.312Z"/></g></svg>
